X:50
T:Pajduska
S:Hamish Small 
R:Other
O:Macedonia
M:5/16
L:1/16
K:Bbm
c2 e3|c2 d3| dc B2A| c2 c3|\
c2 e3|c2 d3|dc B2A|B2 B3 ::
dc B3|=GA B3|dc B2A|c2 c3|\
dc B3|=GA B3|dc B2A|B2 B3:|
